packages/ffe-icons/icons/filled/sm/airline_seat_recline_normal.svg

<svg xmlns="http://www.w3.org/2000/svg" height="20" viewBox="0 -960 960 960" width="20"><path d="M545-212.001H319.308q-26.307 0-45.307-19-19-19-19-45.308v-369.692q0-11.069 7.405-18.534Q269.81-672 280.79-672q10.979 0 18.594 7.465Q307-657.07 307-646.001v369.692q0 4.616 3.846 8.463 3.847 3.846 8.462 3.846H545q11.069 0 18.534 7.405Q571-249.191 571-238.211q0 10.979-7.466 18.594-7.465 7.616-18.534 7.616ZM428.751-685.999q-32.444 0-55.021-22.825-22.577-22.824-22.577-55.269 0-32.444 22.825-55.021 22.824-22.577 55.269-22.577 32.444 0 55.021 22.825 22.577 22.824 22.577 55.269 0 32.444-22.825 55.021-22.825 22.577-55.269 22.577ZM629-180v-132H440.999q-35.754 0-60.877-25.123Q355-362.246 355-397.999v-185.385q0-31.434 21.225-52.717 21.226-21.283 52.577-21.283 31.35 0 52.773 23.423 21.423 23.423 21.423 55.577v190.385H619q26.153 0 45.076 17.923 18.923 17.923 16.923 44.077V-180q0 11.069-7.405 18.534-7.404 7.465-18.384 7.465-10.979 0-18.594-7.465Q629-168.931 629-180Z"/></svg>

<svg xmlns="http://www.w3.org/2000/svg" height="20" viewBox="0 -960 960 960" width="20"><path d="M545-212H319.31Q293-212 274-231q-19-19-19-45.31V-646q0-11.07 7.41-18.53 7.4-7.47 18.38-7.47 10.98 0 18.59 7.47Q307-657.07 307-646v369.69q0 4.62 3.85 8.46 3.84 3.85 8.46 3.85H545q11.07 0 18.53 7.4 7.47 7.41 7.47 18.39t-7.47 18.59Q556.07-212 545-212ZM428.75-686q-32.44 0-55.02-22.82-22.58-22.83-22.58-55.27 0-32.45 22.83-55.02 22.82-22.58 55.27-22.58 32.44 0 55.02 22.82 22.57 22.83 22.57 55.27 0 32.45-22.82 55.02Q461.2-686 428.75-686ZM629-180v-132H441q-35.75 0-60.88-25.12Q355-362.25 355-398v-185.38q0-31.44 21.23-52.72 21.22-21.28 52.57-21.28t52.78 23.42Q503-610.54 503-578.38V-388h116q26.15 0 45.08 17.92Q683-352.15 681-326v146q0 11.07-7.41 18.53-7.4 7.47-18.38 7.47-10.98 0-18.59-7.47Q629-168.93 629-180Z"/></svg>
